X:1
T:Tarranty, My Son
M:3/4
L:1/4
K:G
 G| G B d| d- B B| A G A| B2 G| G B d| d- B B| A G A| G2 d/2d/2| d e f|\
 g d e/2e/2| e g e| d2 G/2B/2| d e f| g d B| A G A| G2||
